X: 819
T: Alasdair's
R: reel
M: 4/4
K: Adorian
|:eede gedB|gfga gedB|eede gedB|egdB AGAB:|
|:eeAd dAef|gfga gedB|eeAd dAef|gedB AGAB:|
|:AeAe eAAe|AeAd dAAe|AeAe eAef|gfga gedB:|
|:gee(aa)eef|gfde eeef|gee(aa)eef|gfga gedB:|

